Sweet-Rainbow/icons/radiotray.svg

<?xml version="1.0" encoding="UTF-8" standalone="no"?>
<!-- Generator: Gravit.io -->

<svg
   xmlns:dc="http://purl.org/dc/elements/1.1/"
   xmlns:cc="http://creativecommons.org/ns#"
   xmlns:rdf="http://www.w3.org/1999/02/22-rdf-syntax-ns#"
   xmlns:svg="http://www.w3.org/2000/svg"
   xmlns="http://www.w3.org/2000/svg"
   xmlns:sodipodi="http://sodipodi.sourceforge.net/DTD/sodipodi-0.dtd"
   xmlns:inkscape="http://www.inkscape.org/namespaces/inkscape"
   style="isolation:isolate"
   viewBox="0 0 36 36"
   width="48"
   height="48"
   version="1.1"
   id="svg9"
   sodipodi:docname="radiotray.svg"
   inkscape:version="0.92.4 (5da689c313, 2019-01-14)">
  <metadata
     id="metadata15">
    <rdf:RDF>
      <cc:Work
         rdf:about="">
        <dc:format>image/svg+xml</dc:format>
        <dc:type
           rdf:resource="http://purl.org/dc/dcmitype/StillImage" />
        <dc:title></dc:title>
      </cc:Work>
    </rdf:RDF>
  </metadata>
  <defs
     id="defs13" />
  <sodipodi:namedview
     pagecolor="#ffffff"
     bordercolor="#666666"
     borderopacity="1"
     objecttolerance="10"
     gridtolerance="10"
     guidetolerance="10"
     inkscape:pageopacity="0"
     inkscape:pageshadow="2"
     inkscape:window-width="640"
     inkscape:window-height="480"
     id="namedview11"
     showgrid="false"
     inkscape:zoom="25.170207"
     inkscape:cx="29.546349"
     inkscape:cy="37.333333"
     inkscape:current-layer="svg9" />
  <linearGradient
     id="_lgradient_9"
     x1="0.67180997"
     y1="0.020570019"
     x2="0.42214948"
     y2="0.96016449"
     gradientTransform="matrix(51.5,0,0,37.5,2,10)"
     gradientUnits="userSpaceOnUse">
    <stop
       offset="0%"
       stop-opacity="1"
       style="stop-color:rgb(26,108,255)"
       id="stop2" />
    <stop
       offset="100%"
       stop-opacity="1"
       style="stop-color:rgb(197,34,255)"
       id="stop4" />
  </linearGradient>
  <g
     id="g826"
     transform="matrix(0.69902913,0,0,0.69902913,-1.3980584,-2.0970875)">
    <path
       id="path7"
       d="m 5.5,18.75 v 0 c 0,0.966 -0.784,1.75 -1.75,1.75 v 0 C 2.784,20.5 2,19.716 2,18.75 v 0 V 14 c 0,-2.208 1.792,-4 4,-4 h 43.5 c 2.208,0 4,1.792 4,4 v 17.75 0 c 0,0.966 -0.784,1.75 -1.75,1.75 v 0 C 50.784,33.5 50,32.716 50,31.75 v 0 -16.25 c 0,-1.104 -0.896,-2 -2,-2 H 7.5 c -1.104,0 -2,0.896 -2,2 z m 44.5,21 v 0 C 50,38.784 50.784,38 51.75,38 v 0 c 0.966,0 1.75,0.784 1.75,1.75 v 0 3.75 c 0,2.208 -1.792,4 -4,4 H 6 c -2.208,0 -4,-1.792 -4,-4 v -16.75 0 C 2,25.784 2.784,25 3.75,25 v 0 c 0.966,0 1.75,0.784 1.75,1.75 v 0 V 42 c 0,1.104 0.896,2 2,2 H 48 c 1.104,0 2,-0.896 2,-2 z M 19.67,35.66 v 0 c 0.762,-0.32 1.642,0.038 1.965,0.8 v 0 c 0.323,0.762 -0.033,1.64 -0.795,1.96 v 0 c -1.3,0.55 -2.69,0.83 -4.09,0.83 -2.78,0 -5.46,-1.11 -7.42,-3.08 -1.97,-1.96 -3.08,-4.64 -3.08,-7.42 0,-2.78 1.11,-5.46 3.08,-7.42 1.96,-1.97 4.64,-3.08 7.42,-3.08 2.78,0 5.46,1.11 7.42,3.08 1.97,1.96 3.08,4.64 3.08,7.42 0,1.65 -0.39,3.28 -1.14,4.75 v 0 c -0.375,0.74 -1.278,1.035 -2.015,0.66 v 0 c -0.737,-0.375 -1.03,-1.28 -0.655,-2.02 v 0 c 0.53,-1.05 0.81,-2.21 0.81,-3.39 0,-1.99 -0.79,-3.9 -2.2,-5.3 -1.4,-1.41 -3.31,-2.2 -5.3,-2.2 -1.99,0 -3.9,0.79 -5.3,2.2 -1.41,1.4 -2.2,3.31 -2.2,5.3 0,1.99 0.79,3.9 2.2,5.3 1.4,1.41 3.31,2.2 5.3,2.2 1,0 2,-0.2 2.92,-0.59 z M 34.25,24.25 v 0 c 0.828,0 1.5,0.672 1.5,1.5 v 0 c 0,0.828 -0.672,1.5 -1.5,1.5 v 0 h -4 c -1.104,0 -2,-0.896 -2,-2 v -7 c 0,-1.104 0.896,-2 2,-2 h 17 c 1.104,0 2,0.896 2,2 v 7 c 0,1.104 -0.896,2 -2,2 H 40.5 c -1.104,0 -2,-0.896 -2,-2 v -3.5 0 c 0,-0.828 0.672,-1.5 1.5,-1.5 v 0 c 0.828,0 1.5,0.672 1.5,1.5 v 0 2.5 h 4.75 v -5 h -15 v 5 z m -2,10.5 c 0,-0.4 0.16,-0.78 0.44,-1.06 0.28,-0.28 0.66,-0.44 1.06,-0.44 0.4,0 0.78,0.16 1.06,0.44 0.28,0.28 0.44,0.66 0.44,1.06 0,0.4 -0.16,0.78 -0.44,1.06 -0.28,0.28 -0.66,0.44 -1.06,0.44 -0.4,0 -0.78,-0.16 -1.06,-0.44 -0.28,-0.28 -0.44,-0.66 -0.44,-1.06 z m 10,0 c 0,-0.4 0.16,-0.78 0.44,-1.06 0.28,-0.28 0.66,-0.44 1.06,-0.44 0.4,0 0.78,0.16 1.06,0.44 0.28,0.28 0.44,0.66 0.44,1.06 0,0.4 -0.16,0.78 -0.44,1.06 -0.28,0.28 -0.66,0.44 -1.06,0.44 -0.4,0 -0.78,-0.16 -1.06,-0.44 -0.28,-0.28 -0.44,-0.66 -0.44,-1.06 z m -30.993,-8.91 7.71,-2.754 c 0.52,-0.185 1.093,0.086 1.278,0.606 l 0.169,0.471 c 0.185,0.519 -0.086,1.092 -0.606,1.278 l -7.71,2.753 c -0.52,0.186 -1.093,-0.085 -1.278,-0.605 l -0.168,-0.471 c -0.186,-0.52 0.085,-1.092 0.605,-1.278 z m 2.436,6 7.71,-2.754 c 0.52,-0.185 1.092,0.086 1.278,0.606 l 0.168,0.471 c 0.186,0.519 -0.085,1.092 -0.605,1.278 l -7.711,2.753 c -0.519,0.186 -1.092,-0.085 -1.278,-0.605 l -0.168,-0.471 c -0.186,-0.52 0.086,-1.092 0.606,-1.278 z m 15.557,2.91 c 0,-1.19 0.47,-2.34 1.32,-3.18 0.84,-0.85 1.99,-1.32 3.18,-1.32 1.19,0 2.34,0.47 3.18,1.32 0.85,0.84 1.32,1.99 1.32,3.18 0,1.19 -0.47,2.34 -1.32,3.18 -0.84,0.85 -1.99,1.32 -3.18,1.32 -1.19,0 -2.34,-0.47 -3.18,-1.32 -0.85,-0.84 -1.32,-1.99 -1.32,-3.18 z m 10,0 c 0,-1.19 0.47,-2.34 1.32,-3.18 0.84,-0.85 1.99,-1.32 3.18,-1.32 1.19,0 2.34,0.47 3.18,1.32 0.85,0.84 1.32,1.99 1.32,3.18 0,1.19 -0.47,2.34 -1.32,3.18 -0.84,0.85 -1.99,1.32 -3.18,1.32 -1.19,0 -2.34,-0.47 -3.18,-1.32 -0.85,-0.84 -1.32,-1.99 -1.32,-3.18 z m -25.557,-6.454 5.274,-1.884 c 0.52,-0.186 1.093,0.085 1.278,0.605 l 0.169,0.471 c 0.185,0.52 -0.086,1.092 -0.606,1.278 l -5.275,1.884 c -0.519,0.185 -1.092,-0.086 -1.278,-0.606 l -0.168,-0.47 c -0.186,-0.52 0.086,-1.093 0.606,-1.278 z"
       style="fill:url(#_lgradient_9);fill-rule:evenodd"
       inkscape:connector-curvature="0" />
  </g>
</svg>

<?xml version="1.0" encoding="UTF-8" standalone="no"?><!-- Generator: Gravit.io --><svg xmlns="http://www.w3.org/2000/svg" xmlns:xlink="http://www.w3.org/1999/xlink" style="isolation:isolate" viewBox="0 0 56 56" width="56pt" height="56pt"><linearGradient id="_lgradient_9" x1="0.6718099850460906" y1="0.020570018975650584" x2="0.4221494918345081" y2="0.9601645064179158" gradientTransform="matrix(51.5,0,0,37.5,2,10)" gradientUnits="userSpaceOnUse"><stop offset="0%" stop-opacity="1" style="stop-color:rgb(26,108,255)"/><stop offset="100%" stop-opacity="1" style="stop-color:rgb(197,34,255)"/></linearGradient><path d=" M 5.5 18.75 L 5.5 18.75 C 5.5 19.716 4.716 20.5 3.75 20.5 L 3.75 20.5 C 2.784 20.5 2 19.716 2 18.75 L 2 18.75 L 2 14 C 2 11.792 3.792 10 6 10 L 49.5 10 C 51.708 10 53.5 11.792 53.5 14 L 53.5 31.75 L 53.5 31.75 C 53.5 32.716 52.716 33.5 51.75 33.5 L 51.75 33.5 C 50.784 33.5 50 32.716 50 31.75 L 50 31.75 L 50 15.5 C 50 14.396 49.104 13.5 48 13.5 L 7.5 13.5 C 6.396 13.5 5.5 14.396 5.5 15.5 L 5.5 18.75 L 5.5 18.75 L 5.5 18.75 L 5.5 18.75 L 5.5 18.75 L 5.5 18.75 L 5.5 18.75 L 5.5 18.75 Z  M 50 39.75 L 50 39.75 C 50 38.784 50.784 38 51.75 38 L 51.75 38 C 52.716 38 53.5 38.784 53.5 39.75 L 53.5 39.75 L 53.5 43.5 C 53.5 45.708 51.708 47.5 49.5 47.5 L 6 47.5 C 3.792 47.5 2 45.708 2 43.5 L 2 26.75 L 2 26.75 C 2 25.784 2.784 25 3.75 25 L 3.75 25 C 4.716 25 5.5 25.784 5.5 26.75 L 5.5 26.75 L 5.5 42 C 5.5 43.104 6.396 44 7.5 44 L 48 44 C 49.104 44 50 43.104 50 42 L 50 39.75 L 50 39.75 L 50 39.75 L 50 39.75 L 50 39.75 L 50 39.75 L 50 39.75 L 50 39.75 Z  M 19.67 35.66 L 19.67 35.66 C 20.432 35.34 21.312 35.698 21.635 36.46 L 21.635 36.46 C 21.958 37.222 21.602 38.1 20.84 38.42 L 20.84 38.42 C 19.54 38.97 18.15 39.25 16.75 39.25 C 13.97 39.25 11.29 38.14 9.33 36.17 C 7.36 34.21 6.25 31.53 6.25 28.75 C 6.25 25.97 7.36 23.29 9.33 21.33 C 11.29 19.36 13.97 18.25 16.75 18.25 C 19.53 18.25 22.21 19.36 24.17 21.33 C 26.14 23.29 27.25 25.97 27.25 28.75 C 27.25 30.4 26.86 32.03 26.11 33.5 L 26.11 33.5 C 25.735 34.24 24.832 34.535 24.095 34.16 L 24.095 34.16 C 23.358 33.785 23.065 32.88 23.44 32.14 L 23.44 32.14 C 23.97 31.09 24.25 29.93 24.25 28.75 C 24.25 26.76 23.46 24.85 22.05 23.45 C 20.65 22.04 18.74 21.25 16.75 21.25 C 14.76 21.25 12.85 22.04 11.45 23.45 C 10.04 24.85 9.25 26.76 9.25 28.75 C 9.25 30.74 10.04 32.65 11.45 34.05 C 12.85 35.46 14.76 36.25 16.75 36.25 C 17.75 36.25 18.75 36.05 19.67 35.66 L 19.67 35.66 L 19.67 35.66 L 19.67 35.66 L 19.67 35.66 L 19.67 35.66 L 19.67 35.66 Z  M 34.25 24.25 L 34.25 24.25 C 35.078 24.25 35.75 24.922 35.75 25.75 L 35.75 25.75 C 35.75 26.578 35.078 27.25 34.25 27.25 L 34.25 27.25 L 30.25 27.25 C 29.146 27.25 28.25 26.354 28.25 25.25 L 28.25 18.25 C 28.25 17.146 29.146 16.25 30.25 16.25 L 47.25 16.25 C 48.354 16.25 49.25 17.146 49.25 18.25 L 49.25 25.25 C 49.25 26.354 48.354 27.25 47.25 27.25 L 40.5 27.25 C 39.396 27.25 38.5 26.354 38.5 25.25 L 38.5 21.75 L 38.5 21.75 C 38.5 20.922 39.172 20.25 40 20.25 L 40 20.25 C 40.828 20.25 41.5 20.922 41.5 21.75 L 41.5 21.75 L 41.5 24.25 L 46.25 24.25 L 46.25 19.25 L 31.25 19.25 L 31.25 24.25 L 34.25 24.25 L 34.25 24.25 L 34.25 24.25 L 34.25 24.25 L 34.25 24.25 L 34.25 24.25 Z  M 32.25 34.75 C 32.25 34.35 32.41 33.97 32.69 33.69 C 32.97 33.41 33.35 33.25 33.75 33.25 C 34.15 33.25 34.53 33.41 34.81 33.69 C 35.09 33.97 35.25 34.35 35.25 34.75 C 35.25 35.15 35.09 35.53 34.81 35.81 C 34.53 36.09 34.15 36.25 33.75 36.25 C 33.35 36.25 32.97 36.09 32.69 35.81 C 32.41 35.53 32.25 35.15 32.25 34.75 L 32.25 34.75 L 32.25 34.75 L 32.25 34.75 L 32.25 34.75 L 32.25 34.75 Z  M 42.25 34.75 C 42.25 34.35 42.41 33.97 42.69 33.69 C 42.97 33.41 43.35 33.25 43.75 33.25 C 44.15 33.25 44.53 33.41 44.81 33.69 C 45.09 33.97 45.25 34.35 45.25 34.75 C 45.25 35.15 45.09 35.53 44.81 35.81 C 44.53 36.09 44.15 36.25 43.75 36.25 C 43.35 36.25 42.97 36.09 42.69 35.81 C 42.41 35.53 42.25 35.15 42.25 34.75 L 42.25 34.75 L 42.25 34.75 L 42.25 34.75 L 42.25 34.75 Z  M 11.257 25.84 L 18.967 23.086 C 19.487 22.901 20.06 23.172 20.245 23.692 L 20.414 24.163 C 20.599 24.682 20.328 25.255 19.808 25.441 L 12.098 28.194 C 11.578 28.38 11.005 28.109 10.82 27.589 L 10.652 27.118 C 10.466 26.598 10.737 26.026 11.257 25.84 L 11.257 25.84 L 11.257 25.84 Z  M 13.693 31.84 L 21.403 29.086 C 21.923 28.901 22.495 29.172 22.681 29.692 L 22.849 30.163 C 23.035 30.682 22.764 31.255 22.244 31.441 L 14.533 34.194 C 14.014 34.38 13.441 34.109 13.255 33.589 L 13.087 33.118 C 12.901 32.598 13.173 32.026 13.693 31.84 L 13.693 31.84 Z  M 29.25 34.75 C 29.25 33.56 29.72 32.41 30.57 31.57 C 31.41 30.72 32.56 30.25 33.75 30.25 C 34.94 30.25 36.09 30.72 36.93 31.57 C 37.78 32.41 38.25 33.56 38.25 34.75 C 38.25 35.94 37.78 37.09 36.93 37.93 C 36.09 38.78 34.94 39.25 33.75 39.25 C 32.56 39.25 31.41 38.78 30.57 37.93 C 29.72 37.09 29.25 35.94 29.25 34.75 L 29.25 34.75 L 29.25 34.75 L 29.25 34.75 L 29.25 34.75 L 29.25 34.75 Z  M 39.25 34.75 C 39.25 33.56 39.72 32.41 40.57 31.57 C 41.41 30.72 42.56 30.25 43.75 30.25 C 44.94 30.25 46.09 30.72 46.93 31.57 C 47.78 32.41 48.25 33.56 48.25 34.75 C 48.25 35.94 47.78 37.09 46.93 37.93 C 46.09 38.78 44.94 39.25 43.75 39.25 C 42.56 39.25 41.41 38.78 40.57 37.93 C 39.72 37.09 39.25 35.94 39.25 34.75 L 39.25 34.75 L 39.25 34.75 L 39.25 34.75 L 39.25 34.75 Z  M 13.693 28.296 L 18.967 26.412 C 19.487 26.226 20.06 26.497 20.245 27.017 L 20.414 27.488 C 20.599 28.008 20.328 28.58 19.808 28.766 L 14.533 30.65 C 14.014 30.835 13.441 30.564 13.255 30.044 L 13.087 29.574 C 12.901 29.054 13.173 28.481 13.693 28.296 Z " fill-rule="evenodd" fill="url(#_lgradient_9)"/></svg>
